U := 0.972222
PENUP
LEFT 90
FORWARD 15.000000
RIGHT 90
FORWARD 15.000000
RIGHT 90
PENDOWN
FORWARD U
RIGHT 60
FORWARD U
RIGHT 60
FORWARD U
LEFT 60
FORWARD U
LEFT 60
FORWARD U
LEFT 60
FORWARD U
LEFT 60
FORWARD U
RIGHT 60
FORWARD U
RIGHT 60
FORWARD U
RIGHT 60
FORWARD U
LEFT 60
FORWARD U
LEFT 60
FORWARD U
RIGHT 60
FORWARD U
RIGHT 60
FORWARD U
RIGHT 60
FORWARD U
RIGHT 60
FORWARD U
LEFT 60
FORWARD U
LEFT 60
FORWARD U
RIGHT 60
FORWARD U
RIGHT 60
FORWARD U
RIGHT 60
FORWARD U
LEFT 60
FORWARD U
LEFT 60
FORWARD U
LEFT 60
FORWARD U
LEFT 60
FORWARD U
RIGHT 60
FORWARD U
RIGHT 60
FORWARD U
LEFT 60
FORWARD U
LEFT 60
FORWARD U
LEFT 60
FORWARD U
RIGHT 60
FORWARD U
RIGHT 60
FORWARD U
RIGHT 60
FORWARD U
RIGHT 60
FORWARD U
LEFT 60
FORWARD U
LEFT 60
FORWARD U
LEFT 60
FORWARD U
RIGHT 60
FORWARD U
RIGHT 60
FORWARD U
LEFT 60
FORWARD U
LEFT 60
FORWARD U
LEFT 60
FORWARD U
LEFT 60
FORWARD U
RIGHT 60
FORWARD U
RIGHT 60
FORWARD U
LEFT 60
FORWARD U
LEFT 60
FORWARD U
LEFT 60
FORWARD U
RIGHT 60
FORWARD U
RIGHT 60
FORWARD U
RIGHT 60
FORWARD U
RIGHT 60
FORWARD U
LEFT 60
FORWARD U
LEFT 60
FORWARD U
LEFT 60
FORWARD U
RIGHT 60
FORWARD U
RIGHT 60
FORWARD U
LEFT 60
FORWARD U
LEFT 60
FORWARD U
LEFT 60
FORWARD U
LEFT 60
FORWARD U
RIGHT 60
FORWARD U
RIGHT 60
FORWARD U
RIGHT 60
FORWARD U
LEFT 60
FORWARD U
LEFT 60
FORWARD U
RIGHT 60
FORWARD U
RIGHT 60
FORWARD U
RIGHT 60
FORWARD U
RIGHT 60
FORWARD U
LEFT 60
FORWARD U
LEFT 60
FORWARD U
RIGHT 60
FORWARD U
RIGHT 60
FORWARD U
RIGHT 60
FORWARD U
LEFT 60
FORWARD U
LEFT 60
FORWARD U
LEFT 60
FORWARD U
LEFT 60
FORWARD U
RIGHT 60
FORWARD U
RIGHT 60
FORWARD U
RIGHT 60
FORWARD U
LEFT 60
FORWARD U
LEFT 60
FORWARD U
RIGHT 60
FORWARD U
RIGHT 60
FORWARD U
RIGHT 60
FORWARD U
RIGHT 60
FORWARD U
LEFT 60
FORWARD U
LEFT 60
FORWARD U
LEFT 60
FORWARD U
RIGHT 60
FORWARD U
RIGHT 60
FORWARD U
LEFT 60
FORWARD U
LEFT 60
FORWARD U
LEFT 60
FORWARD U
LEFT 60
FORWARD U
RIGHT 60
FORWARD U
RIGHT 60
FORWARD U
LEFT 60
FORWARD U
LEFT 60
FORWARD U
LEFT 60
FORWARD U
RIGHT 60
FORWARD U
RIGHT 60
FORWARD U
RIGHT 60
FORWARD U
RIGHT 60
FORWARD U
LEFT 60
FORWARD U
LEFT 60
FORWARD U
RIGHT 60
FORWARD U
RIGHT 60
FORWARD U
RIGHT 60
FORWARD U
LEFT 60
FORWARD U
LEFT 60
FORWARD U
LEFT 60
FORWARD U
LEFT 60
FORWARD U
RIGHT 60
FORWARD U
RIGHT 60
FORWARD U
RIGHT 60
FORWARD U
LEFT 60
FORWARD U
LEFT 60
FORWARD U
RIGHT 60
FORWARD U
RIGHT 60
FORWARD U
RIGHT 60
FORWARD U
RIGHT 60
FORWARD U
LEFT 60
FORWARD U
LEFT 60
FORWARD U
RIGHT 60
FORWARD U
RIGHT 60
FORWARD U
RIGHT 60
FORWARD U
LEFT 60
FORWARD U
LEFT 60
FORWARD U
LEFT 60
FORWARD U
LEFT 60
FORWARD U
RIGHT 60
FORWARD U
RIGHT 60
FORWARD U
RIGHT 60
FORWARD U
LEFT 60
FORWARD U
LEFT 60
FORWARD U
RIGHT 60
FORWARD U
RIGHT 60
FORWARD U
RIGHT 60
FORWARD U
RIGHT 60
FORWARD U
LEFT 60
FORWARD U
LEFT 60
FORWARD U
LEFT 60
FORWARD U
RIGHT 60
FORWARD U
RIGHT 60
FORWARD U
LEFT 60
FORWARD U
LEFT 60
FORWARD U
LEFT 60
FORWARD U
LEFT 60
FORWARD U
RIGHT 60
FORWARD U
RIGHT 60
FORWARD U
LEFT 60
FORWARD U
LEFT 60
FORWARD U
LEFT 60
FORWARD U
RIGHT 60
FORWARD U
RIGHT 60
FORWARD U
RIGHT 60
FORWARD U
RIGHT 60
FORWARD U
LEFT 60
FORWARD U
LEFT 60
FORWARD U
RIGHT 60
FORWARD U
RIGHT 60
FORWARD U
RIGHT 60
FORWARD U
LEFT 60
FORWARD U
LEFT 60
FORWARD U
LEFT 60
FORWARD U
LEFT 60
FORWARD U
RIGHT 60
FORWARD U
RIGHT 60
FORWARD U
RIGHT 60
FORWARD U
LEFT 60
FORWARD U
LEFT 60
FORWARD U
RIGHT 60
FORWARD U
RIGHT 60
FORWARD U
RIGHT 60
FORWARD U
RIGHT 60
FORWARD U
LEFT 60
FORWARD U
LEFT 60
FORWARD U
RIGHT 60
FORWARD U
RIGHT 60
FORWARD U
RIGHT 60
FORWARD U
LEFT 60
FORWARD U
LEFT 60
FORWARD U
LEFT 60
FORWARD U
LEFT 60
FORWARD U
RIGHT 60
FORWARD U
RIGHT 60
FORWARD U
LEFT 60
FORWARD U
LEFT 60
FORWARD U
LEFT 60
FORWARD U
RIGHT 60
FORWARD U
RIGHT 60
FORWARD U
RIGHT 60
FORWARD U
RIGHT 60
FORWARD U
LEFT 60
FORWARD U
LEFT 60
FORWARD U
LEFT 60
FORWARD U
RIGHT 60
FORWARD U
RIGHT 60
FORWARD U
LEFT 60
FORWARD U
LEFT 60
FORWARD U
LEFT 60
FORWARD U
LEFT 60
FORWARD U
RIGHT 60
FORWARD U
RIGHT 60
FORWARD U
LEFT 60
FORWARD U
LEFT 60
FORWARD U
LEFT 60
FORWARD U
RIGHT 60
FORWARD U
RIGHT 60
FORWARD U
RIGHT 60
FORWARD U
RIGHT 60
FORWARD U
LEFT 60
FORWARD U
LEFT 60
FORWARD U
LEFT 60
FORWARD U
RIGHT 60
FORWARD U
RIGHT 60
FORWARD U
LEFT 60
FORWARD U
LEFT 60
FORWARD U
LEFT 60
FORWARD U
LEFT 60
FORWARD U
RIGHT 60
FORWARD U
RIGHT 60
FORWARD U
RIGHT 60
FORWARD U
LEFT 60
FORWARD U
LEFT 60
FORWARD U
RIGHT 60
FORWARD U
RIGHT 60
FORWARD U
RIGHT 60
FORWARD U
RIGHT 60
FORWARD U
LEFT 60
FORWARD U
LEFT 60
FORWARD U
RIGHT 60
FORWARD U
RIGHT 60
FORWARD U
RIGHT 60
FORWARD U
LEFT 60
FORWARD U
LEFT 60
FORWARD U
LEFT 60
FORWARD U
LEFT 60
FORWARD U
RIGHT 60
FORWARD U
RIGHT 60
FORWARD U
